X:1
T:Nijmegen, CMD
T:Nijmegen, CMD
T:Leonard Daugherty, 1899
T:Public Domain Courtesy of the Cyber Hymnal™
C:Leonard Daugherty, 1899
Z:Public Domain
Z:Courtesy of the Cyber Hymnal™
%%score 1 ( 2 3 )
L:1/8
Q:1/4=102
M:4/4
K:C
V:1 treble 
V:2 bass 
V:3 bass 
V:1
 [EG]2 | [Ec]3 [Fc] [Fc][Fc] [Gc]>[Gd] | [Ge]6 [Ec]2 | [Fd]3 [Fd] [FA]2 [GB]2 | [Ec]6 [EG]2 | %5
 [Ec]3 [Ec] [Ec][Ec] [Gc]>[Gd] | [Ge]6 [Ec]2 [Fd]3 [Af] [Ge]2 [Fd]2 | [Ec]6 [CE][DF]>[^D^F] | %8
 [EG]4- [EG][EG] [Ec]>[Fd] x | [Ge]6 [Gc]2 | [Fc]3 [Fd] [Ec]2 [Gd]2 | [Ge]4 z [Ec] [Ac]>[GB] | %12
 [FA]4- [FA][Ac] [GB]>[FA] | [EG]6 [Gc]2 | [Fd]3 [Fd] [FA]2 [FB]2 | [Ec]6 x2 |] x6 |] %17
V:2
 [C,C]2 | [C,G,]3 [C,G,] [C,G,][C,G,] [E,G,]>[G,B,] | C6 [C,G,]2 | [F,A,]3 [F,A,] [G,D]2 [G,D]2 | %4
 [C,C]6 [C,C]2 | [C,G,]3 [C,G,] [C,G,][C,G,] [E,G,]>[G,B,] | C6 [C,G,]2 x8 | %7
 [F,A,]3 [F,C] [G,C]2 G,2 x | [C,G,]6 z3 | z ([C,C][C,C]>[C,C] [C,C]2) z2 | %10
 z ([C,C][C,C]>[C,C] [C,C]2) [E,C]2 | [F,A,]3 [F,A,] G,2 [G,B,]2 | [C,C]4 z4 | %13
 z ([F,C][F,C]>[F,C] [F,C]2) z2 | z ([C,C][C,C]>[C,C] [C,C]2) [E,C]2 | %15
 [F,A,]3 [F,A,] [F,D]2 [G,D]2 |] [C,C]6 |] %17
V:3
 x2 | x8 | C6 x2 | x8 | x8 | x8 | C6 x10 | x6 G,2 x | x9 | x8 | x8 | x4 G,2 x2 | x8 | x8 | x8 | %15
 x8 |] x6 |] %17

